X:1
T:James Gibb editions
T:Abide with me - S. S. Wesley
%%score ( 1 2 ) ( 3 4 )
L:1/8
Q:1/4=100
M:4/4
K:G
V:1 treble nm="Midi_74"
V:2 treble 
V:3 bass nm="Midi_74"
V:4 bass 
V:1
"^Orisons""^Abide with me""^Henry Francis Lyte\n(1793-1847)" B2 | B4 G4 | E4 E4 | E2 E2 E2 E2 | %4
"^S. S. Wesley\n(1810-76)" E6 || B2 | B4 G4 | E2 E2 A2 A2 | A4 ^G4 | A8 || A4 G2 F2 | F2 G2 B2 B2 | %12
 B4 ^A4 | B8 || B4 B2 B2 | B2 E2 E2 ^F2 | G4 ^D4 | E8 || %18
V:2
 G2 | G4 ^D4 | E4 !courtesy!=D4 | ^C2 C2 =C2 C2 | B,6 || B,2 | B,4 ^D4 | E2 E2 E2 ^D2 | E4 E4 | %9
w: ~A-|bide with|me; fast|falls the e- ven-|tide;|The|dark- ness|deep- ens; Lord, with|me a-|
w: ~Swift|to its|close ebbs|out life's lit- tle|day;|Earth's|joys grw|dim, its glo- ries|pass a-|
w: ~I|need thy|pres- ence|ev- ery pass- ing|hour;|What|but thy|grace can foil the|temp- ter's|
w: ~I|fear no|foe, with|thee at hand to|bless;|Ills|have no|weight, and tears no|bit- ter-|
w: ~Hold|thou thy|cross be-|fore my clos- ing|eyes;|Shine|through the|gloom and point me|to the|
 E8 || F4 B,2 B,2 | B,2 B,2 E2 E2 | F4 F4 | F8 || =F4 F2 F2 | E2 E2 E2 E2 | E4 B,4 | B,8 || %18
w: bide,|When oth- er|hel- pers fail, and|com- forts|flee,|Help of the|help- les, O a-|bide with|me.|
w: way;|Change and de-|cay in all a-|round I|see;|O thou who|chang- est not, a-|bide with|me.|
w: power?|Who like thy-|self my guide and|stay can|be?|Through cloud and|sun- shine, O a-|bide with|me.|
w: ness.|Where is death's|sting? where, grave, thy|vic- to-|ry?|I tri- umph|still, if thou a-|bide with|me.|
w: skies;|Heaven's morn- ing|breaks, and earth's vain|sha- dows|flee;|In life, in|death, O Lord, a-|bide with|me.|
V:3
 B,2 | B,4 B,4 | A,4 ^G,4 | A,2 E,2 E,2 E,2 | ^G,6 || !courtesy!=G,2 | G,4 B,4 | B,2 B,2 A,2 A,2 | %8
 B,4 B,4 | C8 || B,4 B,2 B,2 | B,2 B,2 B,2 B,2 | ^C4 C4 | ^D8 || B,4 B,2 B,2 | B,2 B,2 ^A,2 A,2 | %16
 B,4 (F,2 A,2) | G,8 || %18
V:4
 E,2 | E,4 B,,4 | C,4 B,,4 | A,,2 A,,2 A,,2 A,,2 | E,6 || E,2 | E,4 B,,4 | C,2 C,2 =F,2 F,2 | %8
 E,4 E,4 | A,,8 || ^D,4 D,2 D,2 | E,2 E,2 G,2 G,2 | F,4 F,4 | B,,8 || G,,4 G,,2 G,,2 | %15
 C,2 C,2 C,2 C,2 | B,,4 B,,4 | E,8 || %18

